X:1
T:USSR
T:USSR  National Anthem
%%score 1 2
L:1/8
Q:1/4=72
M:4/4
K:Bb
V:1 bass nm="Trombone" snm="Tbn."
V:2 bass nm="Trombone" snm="Tbn."
V:1
"^\n" B,6 z F, | B,2 F,>G, A,2 D,D, | G,2 F,>E, F,2 B,,B,, | C,2 C,>D, E,2 E,F, | G,2 A,B, C3 F, | %5
 D2 C>B, C2 A,F, | B,2 A,>G, A,2 D,D, | G,2 F,>E, F,2 B,,>B,, | B,2 A,>G, F,A,B,C | D4 CB,A,B, | %10
 C3 F,2 A,B,D | B,4 A,G,F,G, | A,3 D, D,F,G,A, | B,2 G,>A, B,2 G,>A, | B,2 G,B, E3 E | E4 DCB,C | %16
 D3 B, B,4 | C4 B,A,G,A, | B,3 G, G,4 | B,2 A,>G, A,2 B,,B,, | B,2 A,>G, F,3 F, | %21
 B,2 F,>G, A,2 D,D, | G,2 F,>E, F,2 B,,B,, | C,2 C,>D, E,2 E,F, | G,2 A,B, C3 A, | %25
 D2 C>B, C2 A,F, | B,2 A,>G, A,2 D,D, | G,2 F,>E, F,2 B,,>B,, | B,2 A,>G, F,A,B,C | D4 CB,A,B, | %30
 C3 F,2 A,B,C | B,4 A,G,F,G, | A,3 D, D,F,G,A, | B,2 G,>A, B,2 G,>A, | B,2 G,B, E3 E | E4 DCB,C | %36
 D3 B, B,4 | C4 B,A,G,A, | B,3 A, A,4 | B,2 A,>G, A,2 B,,B,, | F,4 G,2 A,2 | B,8 |] %42
V:2
 B,8 | B,,2 B,,2 D,2 D, z | E,2 E,2 D,2 D,2 | C,2 C,2 B,,2 B,,2 | B,,2 A,G, F,EDC | B,A,DE FCA,F, | %6
 G,F,G,A, DA,F,D, | E,2 C,2 D,2!>(! D,2!>)! | C,2 C,2 FEDC | B,A,B,C D2 D2 | F,2 F,C F,F,E,D, | %11
 G,D,G,A, G,F,B,A, | D,D,F,A, D,2 C,F, | E,3 B,, G,3 F, | E,3 B,, G,F,E,D, | %15
 C,B,, C,D,/E,/ F,2 F,2 | B,A,B,D CB,A,G, | A,2 D,B,,/C,/ D,2 D,2 | G,A,B,C G,F,E,D, | %19
 E,2 C,2 D,2 D,2 | C,2 C,2 F,E,D,C, | B,,2 B,,2 D,2 D, z | E,2 E,2 D,2 D,2 | C,2 C,2 B,,2 B,,2 | %24
 B,,2 A,G, F,EDC | G,2 A,B, ECA,F, | D,2 A,C DA,F,D, | E,D, C,2 D,2!>(! D,2!>)! | %28
 C,2 C,2 F,E,D,C, | B,,A,,B,,C, D,C,D,E, | F,2 F,C F,F,E,D, | G,D,G,A, z G, B,2 | %32
 z D,F,D, z B,,C,F, | E,3 B, G,3 F, | E,3 B,, G,F,E,D, | C,B,, C,D,/E,/ F,2 F,D, | %36
 B,,A,,B,,D, C,2 F,G, | A,2 D,B,,/C,/ D2 D2 | G,F,B,C G,2 F,2 | E,2 C,2 D,2 D,2 | F,3 E, D,2 C,2 | %41
 B,,8 |] %42

